public/skilliconsinstagram.svg

<svg width="41" height="40" viewBox="0 0 41 40" fill="none" xmlns="http://www.w3.org/2000/svg">
<g clip-path="url(#clip0_1852_122)">
<path d="M31.125 0H9.875C4.69733 0 0.5 4.19733 0.5 9.375V30.625C0.5 35.8027 4.69733 40 9.875 40H31.125C36.3027 40 40.5 35.8027 40.5 30.625V9.375C40.5 4.19733 36.3027 0 31.125 0Z" fill="url(#paint0_radial_1852_122)"/>
<path d="M9.875 0.5H31.125C36.0265 0.5 40 4.47347 40 9.375V30.625C40 35.5265 36.0265 39.5 31.125 39.5H9.875C4.97347 39.5 1 35.5265 1 30.625V9.375C1 4.47347 4.97347 0.5 9.875 0.5Z" fill="url(#paint1_radial_1852_122)" stroke="white"/>
<path d="M20.5014 4.375C16.258 4.375 15.7253 4.39359 14.0588 4.46938C12.3953 4.54563 11.2598 4.80891 10.2664 5.19531C9.23859 5.59437 8.36688 6.12828 7.49844 6.99703C6.62922 7.86562 6.09531 8.73734 5.695 9.76469C5.3075 10.7584 5.04391 11.8944 4.96906 13.557C4.89453 15.2237 4.875 15.7566 4.875 20.0002C4.875 24.2437 4.89375 24.7747 4.96938 26.4412C5.04594 28.1047 5.30922 29.2402 5.69531 30.2336C6.09469 31.2614 6.62859 32.1331 7.49734 33.0016C8.36563 33.8708 9.23734 34.4059 10.2644 34.805C11.2586 35.1914 12.3942 35.4547 14.0573 35.5309C15.7241 35.6067 16.2563 35.6253 20.4995 35.6253C24.7434 35.6253 25.2744 35.6067 26.9409 35.5309C28.6044 35.4547 29.7411 35.1914 30.7353 34.805C31.7627 34.4059 32.6331 33.8708 33.5012 33.0016C34.3705 32.1331 34.9042 31.2614 35.3047 30.2341C35.6887 29.2402 35.9525 28.1044 36.0306 26.4416C36.1055 24.775 36.125 24.2437 36.125 20.0002C36.125 15.7566 36.1055 15.2241 36.0306 13.5573C35.9525 11.8939 35.6887 10.7586 35.3047 9.76516C34.9042 8.73734 34.3705 7.86562 33.5012 6.99703C32.6322 6.12797 31.763 5.59406 30.7344 5.19547C29.7383 4.80891 28.6022 4.54547 26.9387 4.46938C25.272 4.39359 24.7414 4.375 20.4966 4.375H20.5014ZM19.0997 7.19078C19.5158 7.19016 19.98 7.19078 20.5014 7.19078C24.6734 7.19078 25.1678 7.20578 26.8153 7.28062C28.3387 7.35031 29.1656 7.60484 29.7164 7.81875C30.4456 8.10187 30.9655 8.44047 31.512 8.9875C32.0589 9.53437 32.3973 10.0552 32.6813 10.7844C32.8952 11.3344 33.15 12.1612 33.2194 13.6847C33.2942 15.3319 33.3105 15.8266 33.3105 19.9966C33.3105 24.1666 33.2942 24.6614 33.2194 26.3084C33.1497 27.8319 32.8952 28.6587 32.6813 29.2089C32.3981 29.9381 32.0589 30.4573 31.512 31.0039C30.9652 31.5508 30.4459 31.8892 29.7164 32.1725C29.1662 32.3873 28.3387 32.6412 26.8153 32.7109C25.1681 32.7858 24.6734 32.802 20.5014 32.802C16.3292 32.802 15.8347 32.7858 14.1877 32.7109C12.6642 32.6406 11.8373 32.3861 11.2861 32.1722C10.557 31.8889 10.0361 31.5505 9.48922 31.0036C8.94234 30.4567 8.60391 29.9372 8.32 29.2077C8.10609 28.6575 7.85125 27.8306 7.78188 26.3072C7.70703 24.66 7.69203 24.1653 7.69203 19.9927C7.69203 15.8202 7.70703 15.328 7.78188 13.6808C7.85156 12.1573 8.10609 11.3305 8.32 10.7797C8.60328 10.0505 8.94234 9.52969 9.48938 8.98281C10.0363 8.43594 10.557 8.09734 11.2862 7.81359C11.837 7.59875 12.6642 7.34484 14.1877 7.27484C15.6291 7.20969 16.1877 7.19016 19.0997 7.18687V7.19078ZM28.842 9.78516C27.8069 9.78516 26.967 10.6242 26.967 11.6595C26.967 12.6947 27.8069 13.5345 28.842 13.5345C29.8772 13.5345 30.717 12.6947 30.717 11.6595C30.717 10.6244 29.8772 9.78516 28.842 9.78516ZM20.5014 11.9759C16.0702 11.9759 12.4773 15.5688 12.4773 20.0002C12.4773 24.4316 16.0702 28.0227 20.5014 28.0227C24.9328 28.0227 28.5244 24.4316 28.5244 20.0002C28.5244 15.5689 24.9328 11.9759 20.5014 11.9759ZM20.5014 14.7917C23.3778 14.7917 25.7098 17.1234 25.7098 20.0002C25.7098 22.8766 23.3778 25.2086 20.5014 25.2086C17.6248 25.2086 15.2931 22.8766 15.2931 20.0002C15.2931 17.1234 17.6248 14.7917 20.5014 14.7917Z" fill="white"/>
</g>
<defs>
<radialGradient id="paint0_radial_1852_122" cx="0" cy="0" r="1" gradientUnits="userSpaceOnUse" gradientTransform="translate(11.125 43.0808) rotate(-90) scale(39.643 36.8711)">
<stop stop-color="#FFDD55"/>
<stop offset="0.1" stop-color="#FFDD55"/>
<stop offset="0.5" stop-color="#FF543E"/>
<stop offset="1" stop-color="#C837AB"/>
</radialGradient>
<radialGradient id="paint1_radial_1852_122" cx="0" cy="0" r="1" gradientUnits="userSpaceOnUse" gradientTransform="translate(-6.20016 2.88141) rotate(78.681) scale(17.7206 73.045)">
<stop stop-color="#3771C8"/>
<stop offset="0.128" stop-color="#3771C8"/>
<stop offset="1" stop-color="#6600FF" stop-opacity="0"/>
</radialGradient>
<clipPath id="clip0_1852_122">
<rect width="40" height="40" fill="white" transform="translate(0.5)"/>
</clipPath>
</defs>
</svg>

<svg width="41" height="40" fill="none" xmlns="http://www.w3.org/2000/svg"><g clip-path="url(#a)"><path d="M31.125 0H9.875A9.375 9.375 0 0 0 .5 9.375v21.25A9.375 9.375 0 0 0 9.875 40h21.25a9.375 9.375 0 0 0 9.375-9.375V9.375A9.375 9.375 0 0 0 31.125 0z" fill="url(#b)"/><path d="M9.875.5h21.25A8.875 8.875 0 0 1 40 9.375v21.25a8.875 8.875 0 0 1-8.875 8.875H9.875A8.875 8.875 0 0 1 1 30.625V9.375A8.875 8.875 0 0 1 9.875.5z" fill="url(#c)" stroke="#fff"/><path d="M20.501 4.375c-4.243 0-4.776.019-6.442.094-1.664.077-2.8.34-3.793.726a7.65 7.65 0 0 0-2.768 1.802 7.67 7.67 0 0 0-1.803 2.768c-.388.993-.651 2.13-.726 3.792-.074 1.667-.094 2.2-.094 6.443 0 4.244.019 4.775.094 6.441.077 1.664.34 2.8.726 3.793.4 1.027.934 1.9 1.802 2.768a7.652 7.652 0 0 0 2.767 1.803c.995.386 2.13.65 3.793.726 1.667.076 2.2.094 6.443.094 4.243 0 4.774-.018 6.44-.094 1.664-.076 2.801-.34 3.795-.726a7.643 7.643 0 0 0 2.766-1.803 7.67 7.67 0 0 0 1.804-2.768c.384-.994.648-2.13.726-3.792.075-1.667.094-2.198.094-6.442 0-4.243-.02-4.776-.094-6.443-.078-1.663-.342-2.798-.726-3.792A7.669 7.669 0 0 0 33.5 6.997a7.633 7.633 0 0 0-2.767-1.802c-.996-.386-2.132-.65-3.795-.726-1.667-.075-2.198-.094-6.442-.094h.004zM19.1 7.191H20.5c4.172 0 4.667.015 6.314.09 1.524.07 2.35.324 2.901.538.73.283 1.25.621 1.796 1.169a4.85 4.85 0 0 1 1.17 1.796c.213.55.468 1.377.537 2.9.075 1.648.091 2.143.091 6.313s-.016 4.664-.09 6.311c-.07 1.524-.325 2.35-.539 2.9a4.831 4.831 0 0 1-1.169 1.796 4.832 4.832 0 0 1-1.796 1.168c-.55.215-1.377.47-2.9.539-1.648.075-2.143.091-6.315.091-4.172 0-4.666-.016-6.313-.091-1.524-.07-2.35-.325-2.902-.539a4.841 4.841 0 0 1-1.797-1.168 4.844 4.844 0 0 1-1.169-1.796c-.214-.55-.469-1.377-.538-2.9-.075-1.648-.09-2.143-.09-6.315 0-4.173.015-4.665.09-6.312.07-1.524.324-2.35.538-2.901a4.84 4.84 0 0 1 1.17-1.797 4.848 4.848 0 0 1 1.796-1.17c.551-.214 1.378-.468 2.902-.538 1.441-.065 2-.085 4.912-.088v.004zm9.742 2.594a1.875 1.875 0 1 0 0 3.75 1.875 1.875 0 0 0 0-3.75zm-8.34 2.19a8.025 8.025 0 1 0 0 16.05 8.025 8.025 0 0 0 0-16.05zm0 2.817a5.208 5.208 0 1 1 0 10.416 5.208 5.208 0 0 1 0-10.416z" fill="#fff"/></g><defs><radialGradient id="b" cx="0" cy="0" r="1" gradientUnits="userSpaceOnUse" gradientTransform="matrix(0 -39.643 36.8711 0 11.125 43.08)"><stop stop-color="#FD5"/><stop offset=".1" stop-color="#FD5"/><stop offset=".5" stop-color="#FF543E"/><stop offset="1" stop-color="#C837AB"/></radialGradient><radialGradient id="c" cx="0" cy="0" r="1" gradientUnits="userSpaceOnUse" gradientTransform="matrix(3.47805 17.37593 -71.62425 14.33664 -6.2 2.881)"><stop stop-color="#3771C8"/><stop offset=".128" stop-color="#3771C8"/><stop offset="1" stop-color="#60F" stop-opacity="0"/></radialGradient><clipPath id="a"><path fill="#fff" transform="translate(.5)" d="M0 0h40v40H0z"/></clipPath></defs></svg>
